images/icons/discogs.svg

<svg enable-background="new 0 0 108.4 108.5" viewBox="0 0 24 24" xmlns="http://www.w3.org/2000/svg"><path d="m11.96.022c-.045 0-.067 0-.11-.022.043.022.087.022.11.022z" fill="#231f20"/><g transform="scale(.220656)"><path d="m34.3 54.2c0-11.1 9-20.1 20.1-20.1 3.7 0 7.1 1 10 2.7l4-7.2c-4.1-2.4-8.9-3.7-14-3.7-7.8 0-14.9 3.2-20 8.3s-8.3 12.2-8.3 20 3.1 14.9 8.3 20c.1.1.3.3.4.4l5.6-6s0 0 .1.1c-3.9-3.7-6.2-8.8-6.2-14.5z"/><path d="m74.4 34.4-5.6 6c3.4 3.6 5.5 8.5 5.5 13.8 0 11.1-9 20.1-20 20.1-3.4 0-6.5-.8-9.3-2.3l-4 7.2c4 2.1 8.5 3.3 13.3 3.3 7.8 0 14.9-3.2 20-8.3s8.3-12.2 8.3-20c-0-7.7-3.1-14.7-8.2-19.8z"/></g><path d="m8.584 11.96c0-1.877 1.521-3.398 3.398-3.398 1.875 0 3.398 1.521 3.398 3.398 0 1.875-1.523 3.398-3.398 3.398-1.877 0-3.398-1.523-3.398-3.398zm.154 0c0 1.787 1.457 3.243 3.244 3.243 1.788 0 3.244-1.456 3.244-3.243s-1.456-3.244-3.244-3.244c-1.787 0-3.244 1.457-3.244 3.244z"/><path d="m12.512 11.96c0 .286-.244.53-.53.53-.288 0-.53-.244-.53-.53 0-.287.242-.53.53-.53.308 0 .53.243.53.53z"/><g transform="scale(.220656)"><g><path d="m28.8 81.1 5.7-6.2c-5.4-5.2-8.8-12.5-8.8-20.7 0-15.9 12.8-28.7 28.7-28.7 5.2 0 10 1.4 14.2 3.8l4-7.4c-5.4-3-11.6-4.8-18.2-4.8-10.2 0-19.5 4.2-26.2 10.9s-10.9 16-10.9 26.2 4.1 19.5 10.9 26.2c.1.2.3.5.6.7z"/><path d="m80.5 28-5.8 6.1c5.1 5.2 8.3 12.3 8.3 20.1 0 15.8-12.8 28.7-28.7 28.7-4.9 0-9.5-1.2-13.5-3.4l-4.1 7.3c5.3 2.9 11.3 4.5 17.7 4.5 10.2 0 19.5-4.2 26.2-10.9s10.9-16 10.9-26.2c-.1-10.2-4.3-19.5-11-26.2z"/></g><g><path d="m86.8 21.7c-.1-.1-.2-.2-.3-.3l-5.7 6.2c6.8 6.8 11.1 16.2 11.1 26.6 0 20.7-16.8 37.5-37.5 37.5-6.5 0-12.6-1.6-17.9-4.5l-4.1 7.3c6.5 3.6 14 5.6 22 5.6 12.7 0 24.2-5.1 32.5-13.5 8.3-8.3 13.4-19.8 13.4-32.5-.1-12.6-5.2-24.1-13.5-32.4z"/><path d="m22.7 87.6 5.7-6.2c-7.2-6.8-11.7-16.5-11.7-27.2 0-20.7 16.8-37.5 37.5-37.5 6.7 0 13 1.8 18.4 4.8l4-7.4c-6.6-3.7-14.3-5.9-22.5-5.9-12.7 0-24.2 5.1-32.5 13.5-8.1 8.3-13.2 19.8-13.2 32.5s5.2 24.2 13.5 32.5c.2.3.5.6.8.9z"/></g><path d="m92 15.5-5.2 5.6c8.6 8.4 13.9 20.1 13.9 33.1 0 25.6-20.8 46.4-46.4 46.4-8.1 0-15.6-2.1-22.2-5.7l-3.9 6.9c7.7 4.2 16.6 6.7 26 6.7 29.9 0 54.2-24.3 54.2-54.2 0-15.2-6.3-29-16.4-38.8z"/></g><path d="m12.159.022h-.199c-6.553 0-11.894 5.295-11.96 11.849v.111c0 3.42 1.457 6.508 3.774 8.693l1.19-1.28c-1.986-1.875-3.221-4.501-3.221-7.435 0-5.648 4.591-10.24 10.239-10.24 1.81 0 3.53.487 5.009 1.303l.816-1.479c-1.677-.948-3.597-1.5-5.648-1.522z"/></svg>

<?xml version="1.0" encoding="utf-8"?>
<svg version="1.1" id="Layer_1" x="0px" y="0px" viewBox="0 0 24 24" style="enable-background:new 0 0 108.4 108.5;" xmlns="http://www.w3.org/2000/svg">
  <style type="text/css">
	.st0{fill:#231F20;}
</style>
  <path class="st0" d="M 11.96 0.022 C 11.915 0.022 11.893 0.022 11.85 0 C 11.893 0.022 11.937 0.022 11.96 0.022 Z" style=""/>
  <g style="" transform="matrix(0.220656, 0, 0, 0.220656, 0, 0)">
    <path d="M34.3,54.2c0-11.1,9-20.1,20.1-20.1c3.7,0,7.1,1,10,2.7l4-7.2c-4.1-2.4-8.9-3.7-14-3.7c-7.8,0-14.9,3.2-20,8.3 c-5.1,5.1-8.3,12.2-8.3,20c0,7.8,3.1,14.9,8.3,20c0.1,0.1,0.3,0.3,0.4,0.4l5.6-6c0,0,0,0,0.1,0.1C36.6,65,34.3,59.9,34.3,54.2z"/>
    <path d="M74.4,34.4l-5.6,6c3.4,3.6,5.5,8.5,5.5,13.8c0,11.1-9,20.1-20,20.1c-3.4,0-6.5-0.8-9.3-2.3l0,0l-4,7.2 c4,2.1,8.5,3.3,13.3,3.3c7.8,0,14.9-3.2,20-8.3c5.1-5.1,8.3-12.2,8.3-20C82.6,46.5,79.5,39.5,74.4,34.4z"/>
  </g>
  <path d="M 8.584 11.96 C 8.584 10.083 10.105 8.562 11.982 8.562 C 13.857 8.562 15.38 10.083 15.38 11.96 C 15.38 13.835 13.857 15.358 11.982 15.358 C 10.105 15.358 8.584 13.835 8.584 11.96 Z M 8.738 11.96 C 8.738 13.747 10.195 15.203 11.982 15.203 C 13.77 15.203 15.226 13.747 15.226 11.96 C 15.226 10.173 13.77 8.716 11.982 8.716 C 10.195 8.716 8.738 10.173 8.738 11.96 Z" style=""/>
  <path d="M 12.512 11.96 C 12.512 12.246 12.268 12.49 11.982 12.49 C 11.694 12.49 11.452 12.246 11.452 11.96 C 11.452 11.673 11.694 11.43 11.982 11.43 C 12.29 11.43 12.512 11.673 12.512 11.96 Z" style=""/>
  <g style="" transform="matrix(0.220656, 0, 0, 0.220656, 0, 0)">
    <path d="M28.8,81.1l5.7-6.2c-5.4-5.2-8.8-12.5-8.8-20.7c0-15.9,12.8-28.7,28.7-28.7c5.2,0,10,1.4,14.2,3.8l4-7.4 c-5.4-3-11.6-4.8-18.2-4.8c-10.2,0-19.5,4.2-26.2,10.9c-6.7,6.7-10.9,16-10.9,26.2c0,10.2,4.1,19.5,10.9,26.2 C28.3,80.6,28.5,80.9,28.8,81.1z"/>
    <path d="M80.5,28C80.5,28,80.5,27.9,80.5,28l-5.8,6.1c5.1,5.2,8.3,12.3,8.3,20.1c0,15.8-12.8,28.7-28.7,28.7 c-4.9,0-9.5-1.2-13.5-3.4l-4.1,7.3c5.3,2.9,11.3,4.5,17.7,4.5c10.2,0,19.5-4.2,26.2-10.9c6.7-6.7,10.9-16,10.9-26.2 C91.4,44,87.2,34.7,80.5,28z"/>
  </g>
  <g style="" transform="matrix(0.220656, 0, 0, 0.220656, 0, 0)">
    <path d="M86.8,21.7c-0.1-0.1-0.2-0.2-0.3-0.3l-5.7,6.2c6.8,6.8,11.1,16.2,11.1,26.6c0,20.7-16.8,37.5-37.5,37.5 c-6.5,0-12.6-1.6-17.9-4.5l-4.1,7.3c6.5,3.6,14,5.6,22,5.6c12.7,0,24.2-5.1,32.5-13.5c8.3-8.3,13.4-19.8,13.4-32.5 C100.2,41.5,95.1,30,86.8,21.7z"/>
    <path d="M22.7,87.6l5.7-6.2c-7.2-6.8-11.7-16.5-11.7-27.2c0-20.7,16.8-37.5,37.5-37.5c6.7,0,13,1.8,18.4,4.8l4-7.4 c-6.6-3.7-14.3-5.9-22.5-5.9c-12.7,0-24.2,5.1-32.5,13.5C13.5,30,8.4,41.5,8.4,54.2c0,12.7,5.2,24.2,13.5,32.5 C22.1,87,22.4,87.3,22.7,87.6z"/>
  </g>
  <g style="" transform="matrix(0.220656, 0, 0, 0.220656, 0, 0)">
    <path class="st0" d="M17.1,93.7"/>
    <path class="st0" d="M28.2,101.8"/>
    <path d="M92,15.5l-5.2,5.6c8.6,8.4,13.9,20.1,13.9,33.1c0,25.6-20.8,46.4-46.4,46.4c-8.1,0-15.6-2.1-22.2-5.7l-3.9,6.9 c7.7,4.2,16.6,6.7,26,6.7c29.9,0,54.2-24.3,54.2-54.2C108.4,39.1,102.1,25.3,92,15.5z"/>
  </g>
  <path d="M 12.159 0.022 L 11.96 0.022 C 5.407 0.022 0.066 5.317 0 11.871 L 0 11.982 C 0 15.402 1.457 18.49 3.774 20.675 L 4.964 19.395 C 2.978 17.52 1.743 14.894 1.743 11.96 C 1.743 6.312 6.334 1.72 11.982 1.72 C 13.792 1.72 15.512 2.207 16.991 3.023 L 17.807 1.544 C 16.13 0.596 14.21 0.044 12.159 0.022 Z" style=""/>
</svg>
